assets/Man kneeling/Medium-Dark/Flat/man_kneeling_flat_medium-dark.svg

<svg width="32" height="32" viewBox="0 0 32 32" fill="none" xmlns="http://www.w3.org/2000/svg">
<path d="M16.525 11.6497L17.135 13.9897L14.735 14.6497L14.125 12.2497L16.525 11.6497Z" fill="#8B5C56"/>
<path d="M16.1653 13.7195C12.8715 13.9999 14.0614 21.0121 14.3015 23.4999H20.0001C19.7645 21.0262 19.4592 13.4391 16.1653 13.7195Z" fill="#00A6ED"/>
<path d="M10.3242 27.6289L14.511 23.5H20C20 23.5 20.401 25.6652 19.3833 27.0533H19.6243L21.3137 29L12 30C10.8018 30.1093 9.06557 29.1775 10.3271 27.6294L10.3242 27.6289Z" fill="#9B9B9B"/>
<path d="M15.994 26.4977C17.3933 26.4911 18.5245 26.4857 19.5208 26.7194C19.6553 26.7509 19.7387 26.8855 19.7071 27.0199C19.6756 27.1543 19.5411 27.2377 19.4067 27.2062C18.4727 26.9872 17.4109 26.9918 16.0059 26.9979C15.7633 26.9989 15.5105 27 15.2463 27C15.1083 27 14.9963 26.8881 14.9963 26.75C14.9963 26.612 15.1083 26.5 15.2463 26.5C15.504 26.5 15.753 26.4989 15.994 26.4977Z" fill="#636363"/>
<path d="M18.0726 20.4836L17.1196 15.53C17.0842 15.4805 17.0516 15.4338 17.0212 15.3902C16.7437 14.9922 16.646 14.8521 16.194 15.1754C16.0412 15.2847 15.903 15.3012 15.778 15.3162C15.4928 15.3502 15.2763 15.3761 15.1121 16.4774L15.6134 20.8443C15.6497 20.8931 15.6001 20.9664 15.5559 21.0116L13.723 23.0768C13.5741 23.1977 12.869 23.9 12.708 24.2077L12.7064 24.2058L12.1629 25.2269C12.0685 25.4075 12.1247 25.6295 12.2838 25.7377L12.2588 25.8297C12.1535 26.0186 12.2232 26.2639 12.4122 26.3692C12.6012 26.4745 12.8464 26.4048 12.9471 26.2069C12.9923 26.2511 13.0419 26.2819 13.1003 26.3081C13.2888 26.3687 13.489 26.2771 13.5811 26.1062L13.9362 25.4404L14.0877 25.3851C14.4084 25.2654 14.7017 25.0923 14.9633 24.8793L17.5418 22.1641C17.9849 21.7792 18.1809 21.2054 18.0726 20.4836Z" fill="#966661"/>
<path d="M20.2152 26.0096L19.0703 27.1367L19.9414 29.1484L23.8452 30.0496C24.2752 30.1096 24.5252 29.5796 24.2052 29.2796L20.6552 25.9896C20.5252 25.8796 20.3352 25.8796 20.2152 26.0096Z" fill="#635994"/>
<path d="M17.8351 18.9996C17.9451 18.9896 18.0251 18.8896 18.0151 18.7796L17.6451 15.8796C17.5451 15.0896 16.8151 14.5196 16.0251 14.6296C15.2351 14.7296 14.6651 15.4596 14.7751 16.2496L15.1651 19.2996C15.7051 19.2396 17.0251 19.0896 17.8351 18.9996Z" fill="#3BC6F6"/>
<path d="M14.0452 13.5695C14.9152 13.4895 16.2552 12.9195 16.5452 11.8495L16.7852 10.4195L17.0652 8.92954C16.9552 7.86954 16.0052 7.08954 14.9452 7.18954L13.6852 7.30954C12.6252 7.41954 11.8452 8.36954 11.9452 9.42954L12.0068 10.1084C11.8672 10.4574 11.7297 10.6651 11.6293 10.8167C11.5284 10.9691 11.4651 11.0647 11.4752 11.19C11.5052 11.44 11.7952 11.61 12.0452 11.59C12.0937 11.5861 12.1283 11.5755 12.1524 11.5591C12.2986 12.8129 12.5727 13.7098 14.0452 13.5695Z" fill="#966661"/>
<path d="M12.5351 10.4896C12.4651 10.4896 12.3951 10.4296 12.3851 10.3396V10.3296C12.3451 9.97957 12.6351 9.74957 12.9251 9.71957C13.2151 9.68957 13.5451 9.85957 13.5751 10.2196V10.2296C13.5851 10.3096 13.5251 10.3896 13.4551 10.3996L12.5351 10.4896Z" fill="white"/>
<path d="M12.4252 10.4997C12.4052 10.4497 12.3952 10.3997 12.3852 10.3397C12.3652 10.0797 12.5052 9.85966 12.7052 9.83966C12.9052 9.80966 13.0852 10.0097 13.1152 10.2597C13.1252 10.3197 13.1152 10.3697 13.1052 10.4297L12.4252 10.4997Z" fill="#7D4533"/>
<path d="M12.5452 10.4896C12.5152 10.4496 12.4852 10.3896 12.4852 10.3296C12.4652 10.1796 12.5552 10.0496 12.6652 10.0396C12.7852 10.0296 12.8852 10.1396 12.8952 10.2896C12.9052 10.3496 12.8952 10.4096 12.8752 10.4496L12.5452 10.4896Z" fill="black"/>
<path d="M12.5533 10.2192C12.5918 10.2155 12.6191 10.1723 12.6143 10.1229C12.6095 10.0734 12.5744 10.0363 12.5359 10.0401C12.4974 10.0438 12.4701 10.0869 12.4749 10.1364C12.4797 10.1859 12.5148 10.2229 12.5533 10.2192Z" fill="white"/>
<path d="M13.3736 11.543C13.4435 11.5588 13.4874 11.6283 13.4716 11.6982C13.3854 12.0801 13.0043 12.3116 12.6264 12.2262C12.5565 12.2104 12.5126 12.141 12.5284 12.071C12.5442 12.0011 12.6136 11.9572 12.6836 11.973C12.9256 12.0277 13.1646 11.8791 13.2184 11.641C13.2342 11.5711 13.3036 11.5272 13.3736 11.543Z" fill="#990838"/>
<path d="M13.4571 9.47808C13.4081 9.48021 13.3599 9.46586 13.3201 9.43733V9.43733C13.1083 9.30833 12.8581 9.25751 12.6127 9.29368C12.5558 9.3028 12.4976 9.28893 12.4509 9.25513C12.4042 9.22133 12.3728 9.17035 12.3637 9.11343C12.3546 9.0565 12.3684 8.99828 12.4022 8.95157C12.436 8.90487 12.487 8.8735 12.5439 8.86438C12.9033 8.80833 13.2708 8.88658 13.5761 9.0842C13.6225 9.11837 13.6536 9.16946 13.6626 9.22639C13.6716 9.28332 13.6578 9.3415 13.6241 9.38831C13.6047 9.41473 13.5796 9.4365 13.5507 9.45203C13.5218 9.46755 13.4899 9.47645 13.4571 9.47808V9.47808Z" fill="#372128"/>
<path d="M16.9032 6.13879C17.7247 6.29874 18.1767 7.02237 18.2125 7.80003C18.2125 7.80003 18.2413 8.4268 18.1619 8.97713C18.1178 9.28158 18.0625 9.59817 18.0041 9.84512C17.9478 10.1385 17.8035 10.5406 17.6406 10.7924C17.4882 11.0204 17.1496 11.2453 16.8262 11.2951C16.5413 11.3378 16.0611 11.1624 15.9245 10.8083C16.1139 10.6647 16.2365 10.4419 16.2403 10.1821C16.2529 9.79617 15.9853 9.46735 15.6155 9.3801C15.5986 9.37542 15.5813 9.37187 15.5635 9.36955C15.5253 9.36306 15.4862 9.3591 15.4463 9.35787L15.4462 9.36319L15.388 9.36059C15.1316 9.34912 14.9363 9.14873 14.9372 8.91606C14.9576 8.60107 14.7132 8.34479 14.3987 8.33599L12.2567 8.29492C12.2445 8.28384 12.2213 8.28491 12.2097 8.28545C11.7533 8.22501 11.3864 7.83479 11.3767 7.36998C11.3632 6.82392 11.7966 6.38525 12.3322 6.39552C12.4952 6.39965 12.6423 6.31147 12.7299 6.19113C12.916 5.93831 13.2108 5.77354 13.5485 5.78127C13.6883 5.78648 13.8176 5.81542 13.9363 5.86812C14.2566 6.0046 14.6175 6.01127 14.9372 5.88025C15.0633 5.83956 15.1899 5.81047 15.3297 5.81568C15.5043 5.81928 15.6689 5.85823 15.8125 5.94468C16.0152 6.05168 16.2505 6.11064 16.4826 6.09997C16.6219 6.09356 16.7623 6.11037 16.9032 6.13879Z" fill="#2D242D"/>
</svg>

<svg xmlns="http://www.w3.org/2000/svg" width="32" height="32" fill="none"><path fill="#8B5C56" d="m16.525 11.65.61 2.34-2.4.66-.61-2.4 2.4-.6Z"/><path fill="#00A6ED" d="M16.165 13.72c-3.293.28-2.104 7.292-1.863 9.78H20c-.235-2.474-.54-10.06-3.835-9.78Z"/><path fill="#9B9B9B" d="m10.324 27.629 4.187-4.129H20s.401 2.165-.617 3.553h.241L21.314 29 12 30c-1.198.11-2.934-.823-1.673-2.37l-.003-.001Z"/><path fill="#636363" d="M15.994 26.498c1.4-.007 2.53-.012 3.527.221a.25.25 0 1 1-.114.487c-.934-.219-1.996-.214-3.401-.208l-.76.002a.25.25 0 0 1 0-.5l.748-.002Z"/><path fill="#966661" d="m18.073 20.484-.953-4.954-.099-.14c-.277-.398-.375-.538-.827-.215-.153.11-.291.126-.416.141-.285.034-.502.06-.666 1.161l.501 4.367c.037.05-.013.122-.057.168l-1.833 2.065c-.149.12-.854.823-1.015 1.13l-.002-.001-.543 1.02a.398.398 0 0 0 .12.512l-.024.092a.4.4 0 0 0 .153.54.389.389 0 0 0 .535-.163.508.508 0 0 0 .153.101.408.408 0 0 0 .481-.202l.355-.666.152-.055c.32-.12.614-.293.875-.506l2.579-2.715c.443-.385.639-.959.53-1.68Z"/><path fill="#635994" d="m20.215 26.01-1.145 1.127.871 2.011 3.904.902c.43.06.68-.47.36-.77l-3.55-3.29a.314.314 0 0 0-.44.02Z"/><path fill="#3BC6F6" d="M17.835 19c.11-.01.19-.11.18-.22l-.37-2.9c-.1-.79-.83-1.36-1.62-1.25-.79.1-1.36.83-1.25 1.62l.39 3.05c.54-.06 1.86-.21 2.67-.3Z"/><path fill="#966661" d="M14.045 13.57c.87-.08 2.21-.65 2.5-1.72l.24-1.43.28-1.49a1.953 1.953 0 0 0-2.12-1.74l-1.26.12a1.953 1.953 0 0 0-1.74 2.12l.062.678c-.14.35-.277.557-.378.709-.1.152-.164.248-.154.373.03.25.32.42.57.4a.22.22 0 0 0 .107-.03c.147 1.253.42 2.15 1.893 2.01Z"/><path fill="#fff" d="M12.535 10.49c-.07 0-.14-.06-.15-.15v-.01c-.04-.35.25-.58.54-.61.29-.03.62.14.65.5v.01c.01.08-.05.16-.12.17l-.92.09Z"/><path fill="#7D4533" d="M12.425 10.5a.75.75 0 0 1-.04-.16c-.02-.26.12-.48.32-.5.2-.03.38.17.41.42.01.06 0 .11-.01.17l-.68.07Z"/><path fill="#000" d="M12.545 10.49a.283.283 0 0 1-.06-.16c-.02-.15.07-.28.18-.29.12-.01.22.1.23.25.01.06 0 .12-.02.16l-.33.04Z"/><path fill="#fff" d="M12.553 10.22c.039-.005.066-.048.061-.097-.005-.05-.04-.087-.078-.083-.039.004-.066.047-.061.096.005.05.04.087.078.083Z"/><path fill="#990838" d="M13.374 11.543a.13.13 0 0 1 .098.155.704.704 0 0 1-.846.528.13.13 0 1 1 .058-.253.445.445 0 0 0 .534-.332.13.13 0 0 1 .156-.098Z"/><path fill="#372128" d="M13.457 9.478a.219.219 0 0 1-.137-.04 1.062 1.062 0 0 0-.707-.144.217.217 0 0 1-.07-.43 1.48 1.48 0 0 1 1.033.22.22.22 0 0 1-.025.368.22.22 0 0 1-.094.026Z"/><path fill="#2D242D" d="M16.903 6.139c.822.16 1.274.883 1.31 1.661 0 0 .028.627-.051 1.177-.044.305-.1.621-.158.868a3.02 3.02 0 0 1-.363.947c-.153.228-.491.453-.815.503-.285.043-.765-.133-.902-.487a.792.792 0 0 0 .316-.626.801.801 0 0 0-.676-.812.857.857 0 0 0-.118-.012v.005l-.058-.002a.458.458 0 0 1-.45-.445.545.545 0 0 0-.54-.58l-2.141-.041c-.012-.011-.036-.01-.047-.01a.96.96 0 0 1-.833-.915.94.94 0 0 1 .955-.974.486.486 0 0 0 .398-.205.985.985 0 0 1 1.206-.323c.32.137.681.143 1.001.012.126-.04.253-.07.393-.064.174.003.339.042.482.129.203.107.438.166.67.155.14-.006.28.01.421.039Z"/></svg>
